X:1
T:Speak for Jesus
T:John Robson Sweney
T:Speak for Jesus
T:Public Domain
T:Public Domain
C:John Robson Sweney
Z:Public Domain
%%score ( 1 2 ) ( 3 4 )
L:1/8
M:4/4
K:F
V:1 treble 
V:2 treble 
V:3 bass 
V:4 bass 
V:1
 [FA]3 [FB] [FA]2 [EG]2 | [EG]3 [EA] [EG]2 [DF]2 | [DF]3 [DF] [DG][DF][DB][B,D] | [A,C]6 z2 | %4
w: 1.~Speak for Je- sus;|He hath touched you,|Raised you from the death of|sin;|
w: 2.~Speak for Je- sus;|not un- aid- ed|Shall we go be- fore His|face;|
w: 3.~Speak for Je- sus;|let His Spir- it|Tell you what to do and|say;|
w: 4.~Speak for Je- sus,|bless- èd Sav- ior!|Tell of mer- cies, sweet and|true;|
 [FA]3 [FB] [FA]2 [FG]2 | [Ec]3 [GB] [GB]2 [FA]2 | [DG]3 D [CE][CE][EA][EG] | F4- F"^Refrain" || %8
w: Use for Him the|life He gives you;|Rise, and pre- cious jew- els||
w: He will take our|lips and fill them|With the mes- sage of His|A- *|
w: Hum- bly, glad- ly|own your Sav- ior;|Let your light shine out to-||
w: Plead- ing, on His|throne of glor- y,|He is speak- ing now for||
 CFA | (z FFF [Fc])[Ac][Bd][Ac] | [GB]6 [EG][FA] | [GB]4- [GB][GB][Ac][GB] | [FA]4- [FA]CFA | %13
w: |||||
w: and speak! a-|* * * * rise and speak!|* is list-|’ning * now a- bove;|A- * rise and speak|
w: |||||
w: |||||
 (z FFF [Fc])[_Ec][DB][CA] | [DB]2 [B,D]3 [DF][CE][B,D] | [A,C]2 [CB]2 [CA]2 [EG]2 | [CF]8 |] %17
w: ||||
w: * * * * for Him who|* you, A- * rise|and speak for Him|you|
w: ||||
w: ||||
V:2
 x8 | x8 | x8 | x8 | x8 | x8 | x3 D x4 | F4- F || x3 | c4- x4 | x8 | x8 | x8 | c4- x4 | x8 | x8 | %16
w: ||||||win!||||||||||
w: ||||||grace.|rise *||Christ||||saves|||
w: ||||||day!||||||||||
w: ||||||you.||||||||||
 x8 |] %17
w: |
w: |
w: |
w: |
V:3
 [F,C]3 [F,D] [F,C]2 [C,B,]2 | [^C,A,]3 [C,A,] [D,A,]2 [D,A,]2 | %2
w: ~ ~ ~ ~|~ ~ ~ ~|
 [B,,B,]3 [B,,B,] [B,,B,][B,,B,][B,,F,][B,,F,] | [F,,F,]6 z2 | [F,C]3 [F,D] [F,C]2 [C,C]2 | %5
w: ~ ~ ~ ~ ~ ~|~|~ ~ ~ ~|
 [C,G,]3 [C,C] [F,C]2 [F,C]2 | [B,,B,]3 [C,G,] [C,G,][C,G,][C,C][C,B,] | [F,A,]4- [F,A,] || z3 | %9
w: ~ ~ ~ ~|~ ~ ~ ~ ~ ~|~ *||
 z [F,A,][F,A,][F,A,] [F,A,] z3 | z [C,C][C,C][C,C] [C,C]2 [C,C][C,C] | %11
w: A- rise and speak!|a- rise and speak! ~ ~|
 [C,C][C,C][C,C][C,C] [C,C][C,C][C,C][C,C] | [F,C]4- [F,C] z3 | %13
w: list- ’ning, Christ is list- ’ning now a-|bove. *|
 z [F,A,][F,A,][F,A,] [F,A,][F,A,]F,F, | [B,,F,]2 [B,,F,]3 [B,,F,][B,,F,][B,,F,] | %15
w: A- rise and speak * * *||
 [C,F,]2 [C,G,]2 [C,F,]2 [C,B,]2 | [F,,F,A,]8 |] %17
w: ||
V:4
 x8 | x8 | x8 | x8 | x8 | x8 | x8 | x5 || x3 | x8 | x8 | x8 | x8 | x6 F,F, | x8 | x8 | x8 |] %17

